X: 11984
T: Enlist For A Sailor
R: polka
M: 2/4
K: Edorian
EE/F/ G/F/G/A/|Be B>c|dA AF|FGAF D>B|
E/D/E/F/ G/F/G/A/|Be BB/c/|dF AG/F/|E2 A/G/F/G/|
E>F G>A|Be BB/c/|dA AF|FGAF D2|
EE/F/ GG/A/|Be Bc|dF AF|E3||
Be B>A|Be B>c|dA A/B/A/G/|FGAF D2|
BB/e/ BB/A/|Be Bc|dF A/G/F/G/|E2 EG/A/|
Be B/c/B/A/|Be B2|dA A>G|FGAF D2|
EE/F/ GG/A/|Be Bc|dF AF|E3||

